svgs/thin/monitor-waveform.svg

<svg xmlns="http://www.w3.org/2000/svg" viewBox="0 0 576 512"><!-- Font Awesome Pro 6.0.0-alpha2 by @fontawesome - https://fontawesome.com License - https://fontawesome.com/license (Commercial License) --><path d="M512 32H64C28.654 32 0 60.654 0 96V416C0 451.346 28.654 480 64 480H512C547.346 480 576 451.346 576 416V96C576 60.654 547.346 32 512 32ZM560 416C560 442.467 538.467 464 512 464H64C37.533 464 16 442.467 16 416V96C16 69.533 37.533 48 64 48H512C538.467 48 560 69.533 560 96V416ZM480 96H96C78.326 96 64 110.326 64 128V384C64 401.674 78.326 416 96 416H480C497.674 416 512 401.674 512 384V128C512 110.326 497.674 96 480 96ZM496 384C496 392.822 488.822 400 480 400H96C87.178 400 80 392.822 80 384V288H187.062L216.844 347.578C218.188 350.297 220.969 352 224 352H224.188C227.281 351.922 230.063 350.078 231.312 347.25L288.437 218.734L320.844 283.578C322.188 286.281 324.969 288 328 288H408C412.406 288 416 284.422 416 280S412.406 272 408 272H332.938L295.156 196.422C293.781 193.656 291 191.938 287.812 192C284.719 192.078 281.938 193.922 280.688 196.75L223.563 325.266L199.156 276.422C197.812 273.719 195.031 272 192 272H80V128C80 119.178 87.178 112 96 112H480C488.822 112 496 119.178 496 128V384Z"/></svg>

<svg xmlns="http://www.w3.org/2000/svg" viewBox="0 0 576 512"><!--! Font Awesome Pro 6.3.0 by @fontawesome - https://fontawesome.com License - https://fontawesome.com/license (Commercial License) Copyright 2023 Fonticons, Inc. --><path d="M512 32H64C28.65 32 0 60.65 0 96v320c0 35.35 28.65 64 64 64h448c35.35 0 64-28.65 64-64V96C576 60.65 547.3 32 512 32zM560 416c0 26.47-21.53 48-48 48H64c-26.47 0-48-21.53-48-48V96c0-26.47 21.53-48 48-48h448c26.47 0 48 21.53 48 48V416zM480 96H96C78.33 96 64 110.3 64 128v256c0 17.67 14.33 32 32 32h384c17.67 0 32-14.33 32-32V128C512 110.3 497.7 96 480 96zM496 384c0 8.822-7.178 16-16 16H96c-8.822 0-16-7.178-16-16V288h107.1l29.78 59.58C218.2 350.3 220.1 352 224 352c3.094-.0781 6.062-1.922 7.312-4.75l57.13-128.5l32.41 64.84C322.2 286.3 324.1 288 328 288h80C412.4 288 416 284.4 416 280S412.4 272 408 272h-75.06l-37.78-75.58C293.8 193.7 291 191.9 287.8 192C284.7 192.1 281.9 193.9 280.7 196.8l-57.13 128.5L199.2 276.4C197.8 273.7 195 272 192 272H80V128c0-8.822 7.178-16 16-16h384c8.822 0 16 7.178 16 16V384z"/></svg>
